img/vector-illustrator.svg

<svg width="60" height="60" viewBox="0 0 60 60" fill="none" xmlns="http://www.w3.org/2000/svg">
<path fill-rule="evenodd" clip-rule="evenodd" d="M10.9091 0C8.01582 0 5.24105 1.14935 3.1952 3.1952C1.14935 5.24105 0 8.01582 0 10.9091V49.0909C0 51.9842 1.14935 54.7589 3.1952 56.8048C5.24105 58.8507 8.01582 60 10.9091 60H49.0909C51.9842 60 54.7589 58.8507 56.8048 56.8048C58.8507 54.7589 60 51.9842 60 49.0909V10.9091C60 8.01582 58.8507 5.24105 56.8048 3.1952C54.7589 1.14935 51.9842 0 49.0909 0H10.9091ZM42.1309 20.9236C42.8542 20.9236 43.5479 20.6363 44.0594 20.1248C44.5708 19.6134 44.8582 18.9197 44.8582 18.1964C44.8582 17.473 44.5708 16.7794 44.0594 16.2679C43.5479 15.7564 42.8542 15.4691 42.1309 15.4691C41.4076 15.4691 40.7139 15.7564 40.2024 16.2679C39.691 16.7794 39.4036 17.473 39.4036 18.1964C39.4036 18.9197 39.691 19.6134 40.2024 20.1248C40.7139 20.6363 41.4076 20.9236 42.1309 20.9236ZM44.8582 43.56V23.8609H39.4036V43.56H44.8582ZM10.5709 43.56L19.2818 18.6655V16.8655H26.2391L35.8773 43.56H29.8991L27.63 37.3227H18.1991L16.0855 43.56H10.5709ZM19.6936 32.0155H26.0836L22.89 21.6055L19.6936 32.0155Z" fill="#F7F1E8"/>
</svg>

<?xml version="1.0" encoding="utf-8"?>
<!-- Generator: Adobe Illustrator 23.0.1, SVG Export Plug-In . SVG Version: 6.00 Build 0)  -->
<svg version="1.1" id="Capa_1" xmlns="http://www.w3.org/2000/svg" xmlns:xlink="http://www.w3.org/1999/xlink" x="0px" y="0px"
	 viewBox="0 0 60 60" style="enable-background:new 0 0 60 60;" xml:space="preserve">
<style type="text/css">
	.st0{fill:#1A1AA2;}
	.st1{fill-rule:evenodd;clip-rule:evenodd;fill:#F7F1E8;}
</style>
<rect x="10.6" y="14.6" class="st0" width="37.9" height="30.7"/>
<path class="st1" d="M10.9,0C8,0,5.2,1.1,3.2,3.2S0,8,0,10.9v38.2c0,2.9,1.1,5.7,3.2,7.7c2,2,4.8,3.2,7.7,3.2h38.2
	c2.9,0,5.7-1.1,7.7-3.2c2-2,3.2-4.8,3.2-7.7V10.9c0-2.9-1.1-5.7-3.2-7.7c-2-2-4.8-3.2-7.7-3.2H10.9z M42.1,20.9
	c0.7,0,1.4-0.3,1.9-0.8c0.5-0.5,0.8-1.2,0.8-1.9c0-0.7-0.3-1.4-0.8-1.9c-0.5-0.5-1.2-0.8-1.9-0.8c-0.7,0-1.4,0.3-1.9,0.8
	c-0.5,0.5-0.8,1.2-0.8,1.9c0,0.7,0.3,1.4,0.8,1.9C40.7,20.6,41.4,20.9,42.1,20.9z M44.9,43.6V23.9h-5.5v19.7H44.9z M10.6,43.6
	l8.7-24.9v-1.8h7l9.6,26.7h-6l-2.3-6.2h-9.4l-2.1,6.2H10.6z M19.7,32h6.4l-3.2-10.4L19.7,32z"/>
</svg>
